Papirus/22x22/panel/si-syncing-7.svg

<?xml version="1.0" encoding="UTF-8" standalone="no"?>
<svg id="svg2" xmlns:rdf="http://www.w3.org/1999/02/22-rdf-syntax-ns#" xmlns="http://www.w3.org/2000/svg" viewBox="0 0 22 22" width="22" version="1.1" xmlns:cc="http://creativecommons.org/ns#" height="22" xmlns:dc="http://purl.org/dc/elements/1.1/">
 <metadata id="metadata12">
  <rdf:RDF>
   <cc:Work rdf:about="">
    <dc:format>image/svg+xml</dc:format>
    <dc:type rdf:resource="http://purl.org/dc/dcmitype/StillImage"/>
    <dc:title/>
   </cc:Work>
  </rdf:RDF>
 </metadata>
 <path id="path6" d="m7 17.928a8 8 0 0 0 10.928 -2.928 8 8 0 0 0 -2.928 -10.928 8 8 0 0 0 -10.928 2.928 8 8 0 0 0 2.928 10.928zm1-1.732a6 6 0 0 1 -2.8736 -3.995 1.5 1.5 0 0 1 -0.24 -0.112 1.5 1.5 0 0 1 -0.5491 -2.049 1.5 1.5 0 0 1 0.9019 -0.695 6 6 0 0 1 0.5646 -1.345 6 6 0 0 1 2.793 -2.4898 1.5 1.5 0 0 1 0.1981 -0.6908 1.5 1.5 0 0 1 2.0491 -0.549 1.5 1.5 0 0 1 0.647 0.7572 6 6 0 0 1 2.509 0.7762 6 6 0 0 1 2.9949 5.1955 1.5 1.5 0 0 1 0.05175 0.02757 1.5 1.5 0 0 1 0.54904 2.049 1.5 1.5 0 0 1 -1.3084 0.74661 6 6 0 0 1 -0.09112 0.17742 6 6 0 0 1 -8.1962 2.1962zm0.5-0.866a5 5 0 0 0 6.83 -1.83 5 5 0 0 0 0.011 -0.019 1.5 1.5 0 0 1 -0.541 -1.191l-3.274-1.252a1.5 1.5 0 0 1 -1.892 0.328 1.5 1.5 0 0 1 -0.572 -0.592l-1.9532 0.298a1.5 1.5 0 0 1 -0.1734 0.468 1.5 1.5 0 0 1 -0.7869 0.66 5 5 0 0 0 2.3515 3.13zm-1.5419-5.247 1.9535-0.298a1.5 1.5 0 0 1 0.1734 -0.468 1.5 1.5 0 0 1 0.71 -0.6277l-0.11-1.6779a1.5 1.5 0 0 1 -0.341 -0.143 1.5 1.5 0 0 1 -0.4504 -0.3998 5 5 0 0 0 -2.2237 2.0314 5 5 0 0 0 -0.4109 0.9265 1.5 1.5 0 0 1 0.1274 0.0645 1.5 1.5 0 0 1 0.5718 0.592zm4.9226 0.02071 3.2746 1.2501a1.5 1.5 0 0 1 0.838 -0.495 5 5 0 0 0 -2.494 -4.1891 5 5 0 0 0 -1.981 -0.636 1.5 1.5 0 0 1 -0.126 0.2855 1.5 1.5 0 0 1 -0.71 0.6277l0.1093 1.6779a1.5 1.5 0 0 1 0.34143 0.143 1.5 1.5 0 0 1 0.74675 1.3355z" fill="#fff"/>
</svg>

<?xml version="1.0" encoding="UTF-8" standalone="no"?>
<svg xmlns:dc="http://purl.org/dc/elements/1.1/" xmlns:cc="http://creativecommons.org/ns#" xmlns:rdf="http://www.w3.org/1999/02/22-rdf-syntax-ns#" xmlns:svg="http://www.w3.org/2000/svg" xmlns="http://www.w3.org/2000/svg" id="svg2" viewBox="0 0 22 22" version="1.1" width="22" height="22">
    <metadata id="metadata12">
        <rdf:RDF>
            <cc:Work rdf:about="">
                <dc:format>
                    image/svg+xml
                </dc:format>
                <dc:type rdf:resource="http://purl.org/dc/dcmitype/StillImage"/>
                <dc:title/>
            </cc:Work>
        </rdf:RDF>
    </metadata>
    <path d="M 7,17.928 A 8,8 0 0 0 17.928,15 8,8 0 0 0 15,4.072 8,8 0 0 0 4.072,7 8,8 0 0 0 7,17.928 Z M 8,16.196 A 6,6 0 0 1 5.1264,12.201 1.5,1.5 0 0 1 4.8864,12.089 1.5,1.5 0 0 1 4.3373,10.04 1.5,1.5 0 0 1 5.2392,9.345 6,6 0 0 1 5.8038,8 6,6 0 0 1 8.5968,5.5102 1.5,1.5 0 0 1 8.7949,4.8194 1.5,1.5 0 0 1 10.844,4.2704 1.5,1.5 0 0 1 11.491,5.0276 6,6 0 0 1 14,5.8038 a 6,6 0 0 1 2.9949,5.1955 1.5,1.5 0 0 1 0.05175,0.02757 1.5,1.5 0 0 1 0.54904,2.049 1.5,1.5 0 0 1 -1.3084,0.74661 6,6 0 0 1 -0.09112,0.17742 6,6 0 0 1 -8.1962,2.1962 z M 8.5,15.33 A 5,5 0 0 0 15.33,13.5 5,5 0 0 0 15.341,13.481 1.5,1.5 0 0 1 14.8,12.29 L 11.526,11.038 A 1.5,1.5 0 0 1 9.634,11.366 1.5,1.5 0 0 1 9.062,10.774 L 7.1088,11.072 A 1.5,1.5 0 0 1 6.9354,11.54 1.5,1.5 0 0 1 6.1485,12.2 5,5 0 0 0 8.5,15.33 Z M 6.9581,10.083 8.9116,9.785 A 1.5,1.5 0 0 1 9.085,9.317 1.5,1.5 0 0 1 9.795,8.6893 L 9.685,7.0114 A 1.5,1.5 0 0 1 9.344,6.8684 1.5,1.5 0 0 1 8.8936,6.4686 5,5 0 0 0 6.6699,8.5 5,5 0 0 0 6.25902,9.4265 1.5,1.5 0 0 1 6.38639,9.49103 1.5,1.5 0 0 1 6.95815,10.08275 Z m 4.9226,0.02071 3.2746,1.2501 a 1.5,1.5 0 0 1 0.838,-0.495 5,5 0 0 0 -2.494,-4.1891 5,5 0 0 0 -1.981,-0.636 1.5,1.5 0 0 1 -0.126,0.2855 1.5,1.5 0 0 1 -0.71,0.6277 l 0.1093,1.6779 a 1.5,1.5 0 0 1 0.34143,0.143 1.5,1.5 0 0 1 0.74675,1.3355 z" id="path6" style="fill:#ffffff;fill-opacity:1;opacity:1"/>
</svg>
